brandFactory_export/3.Masa/Alarma desactivada_3Masa.svg

<?xml version="1.0" encoding="UTF-8"?>
<svg width="24px" height="24px" viewBox="0 0 24 24" version="1.1" xmlns="http://www.w3.org/2000/svg" xmlns:xlink="http://www.w3.org/1999/xlink">
    <title>3.Masa/Alarma desactivada_3Masa</title>
    <g id="Symbols" stroke="none" stroke-width="1" fill="none" fill-rule="evenodd">
        <g id="3.Masa/Alarma-desactivada_3Masa" fill="#5CB615" fill-rule="nonzero">
            <path d="M11.8336134,22.2117647 C12.6,22.2117647 13.1546218,22.0134454 13.5277311,21.610084 C13.9176471,21.1865546 14.0420168,20.605042 14.0789916,20.1815126 L9.59159664,20.1815126 C9.62521008,20.6016807 9.74621849,21.1865546 10.1361345,21.610084 C10.5092437,22.0168067 11.0638655,22.2117647 11.8336134,22.2117647 Z M2.35798319,0.275630252 L22.4789916,22.4168067 C22.7445378,22.7058824 22.7243697,23.1563025 22.4352941,23.4218487 L22.4184874,23.4386555 C22.112605,23.7042017 21.6487395,23.6773109 21.3764706,23.3781513 L18.4722689,20.1848739 L15.5647059,20.1848739 C15.5210084,20.8369748 15.3327731,21.8117647 14.6403361,22.5714286 C13.9815126,23.2941176 13.0369748,23.6605042 11.8369748,23.6605042 C10.6336134,23.6605042 9.68907563,23.2941176 9.0302521,22.5714286 C8.33781513,21.8117647 8.15294118,20.8369748 8.11260504,20.1848739 L1.74957983,20.1848739 C1.44033613,20.1882353 1.16134454,19.9932773 1.05378151,19.7042017 C0.949579832,19.4151261 1.04033613,19.092437 1.28235294,18.9042017 C3.74285714,16.9344538 3.51092437,12.8369748 3.50756303,12.7932773 L3.50420168,8.19159664 C3.50420168,7.76470588 3.53109244,7.35798319 3.57478992,6.96470588 C3.58823529,6.85714286 3.60168067,6.75294118 3.61512605,6.6487395 C3.62857143,6.54789916 3.63529412,6.44369748 3.65210084,6.34285714 L3.66890756,6.36302521 C3.7697479,5.71428571 3.94453782,5.0789916 4.18991597,4.47058824 L1.25546218,1.23361345 C0.989915966,0.944537815 1.01008403,0.494117647 1.29915966,0.228571429 L1.31596639,0.211764706 C1.62521008,-0.0504201681 2.08571429,-0.0201680672 2.35798319,0.275630252 Z M22.3915966,18.897479 C22.6336134,19.0890756 22.7243697,19.4117647 22.6201681,19.7008403 C22.5865546,19.7882353 22.5327731,19.8689076 22.4689076,19.9361345 L6.0789916,1.90252101 C8.37478992,-0.00672268908 11.3865546,0.0571428571 11.8369748,0.0806722689 C12.3008403,0.0571428571 15.5008403,-0.0168067227 17.8201681,2.09411765 C19.3764706,3.5092437 20.1663866,5.55966387 20.1663866,8.18823529 L20.1663866,12.7428571 C20.1630252,12.8302521 19.9411765,16.9411765 22.3915966,18.897479 Z" id="Alarma-desactivada_3Masa"></path>
        </g>
    </g>
</svg>

<svg width="24" height="24" viewBox="0 0 24 24" xmlns="http://www.w3.org/2000/svg"><path d="M11.834 22.212c.766 0 1.32-.199 1.694-.602.39-.423.514-1.005.551-1.428H9.592c.033.42.154 1.005.544 1.428.373.407.928.602 1.698.602zM2.358.276l20.121 22.14c.266.29.245.74-.044 1.006l-.017.017a.748.748 0 01-1.042-.06l-2.904-3.194h-2.907c-.044.652-.232 1.627-.925 2.386-.658.723-1.603 1.09-2.803 1.09-1.203 0-2.148-.367-2.807-1.09-.692-.76-.877-1.734-.917-2.386H1.75a.738.738 0 01-.696-.48.708.708 0 01.228-.8c2.46-1.97 2.229-6.068 2.226-6.112l-.004-4.601a11.055 11.055 0 01.111-1.543c.014-.101.02-.205.037-.306l.017.02c.1-.649.276-1.284.52-1.892L1.256 1.234A.712.712 0 011.3.229l.017-.017a.755.755 0 011.042.064zm20.034 18.621a.714.714 0 01.228.804.724.724 0 01-.151.235L6.079 1.903C8.375-.007 11.387.057 11.837.08c.464-.024 3.664-.098 5.983 2.013 1.556 1.415 2.346 3.466 2.346 6.094v4.555c-.003.087-.225 4.198 2.226 6.154z" fill="#5CB615" fill-rule="nonzero"/></svg>
